<?xml version="1.0" encoding="UTF-8"?>
<map version="1.10" tiledversion="1.11.2" orientation="isometric" renderorder="right-down" width="50" height="50" tilewidth="32" tileheight="32" infinite="0" nextlayerid="2" nextobjectid="1">
 <tileset firstgid="1" name="000" tilewidth="32" tileheight="32" tilecount="110" columns="11">
  <image source="000.jpg" width="369" height="323"/>
 </tileset>
 <layer id="1" name="图块层 1" width="50" height="50">
  <data encoding="csv">
1,2,3,4,5,6,7,8,9,10,11,1,2,3,4,5,6,7,8,9,10,11,0,1,2,3,4,5,6,7,8,9,10,11,1,2,3,4,5,6,7,8,9,10,11,1,2,3,4,5,
12,13,14,15,16,17,18,19,20,21,22,12,13,14,15,16,17,18,19,20,21,22,1,12,13,14,15,16,17,18,19,20,21,22,12,13,14,15,16,17,18,19,20,21,22,12,13,14,15,16,
23,24,25,26,27,28,29,30,31,32,33,23,24,25,26,27,28,29,30,31,32,33,12,23,24,25,26,27,28,29,30,31,32,33,23,24,25,26,27,28,29,30,31,32,33,23,24,25,26,27,
34,35,36,37,38,39,40,41,42,43,44,34,35,36,37,38,39,40,41,42,43,44,23,34,35,36,37,38,39,40,41,42,43,44,34,35,36,37,38,39,40,41,42,43,44,34,35,36,37,38,
45,46,47,48,49,50,51,52,53,54,55,45,46,47,48,49,50,51,52,53,54,55,34,45,46,47,48,49,50,51,52,53,54,55,45,46,47,48,49,50,51,52,53,54,55,45,46,47,48,49,
56,57,58,59,60,61,62,63,64,65,66,56,57,58,59,60,61,62,63,64,65,66,45,56,57,58,59,60,61,62,63,64,65,66,56,57,58,59,60,61,62,63,64,65,66,56,57,58,59,60,
67,68,69,70,71,72,73,74,75,76,77,67,68,69,70,71,72,73,74,75,76,77,56,67,68,69,70,71,72,73,74,75,76,77,67,68,69,70,71,72,73,74,75,76,77,67,68,69,70,71,
78,79,80,81,82,83,84,85,86,87,88,78,79,80,81,82,83,84,85,86,87,88,67,78,79,80,81,82,83,84,85,86,87,88,78,79,80,81,82,83,84,85,86,87,88,78,79,80,81,82,
89,90,91,92,93,94,95,96,97,98,99,89,90,91,92,93,94,95,96,97,98,99,78,89,90,91,92,93,94,95,96,97,98,99,89,90,91,92,93,94,95,96,97,98,99,89,90,91,92,93,
100,101,102,103,104,105,106,107,108,109,110,100,101,102,103,104,105,106,107,108,109,110,89,100,101,102,103,104,105,106,107,108,109,110,100,101,102,103,104,105,106,107,108,109,110,100,101,102,103,104,
1,2,3,4,5,6,7,8,9,10,11,1,2,3,4,5,6,7,8,9,10,11,100,101,102,103,104,105,106,107,108,109,110,1,2,3,4,5,6,7,8,9,10,11,1,2,3,4,5,6,
12,13,14,15,16,17,18,19,20,21,22,12,13,14,15,16,17,18,19,20,21,22,0,1,2,3,4,5,6,7,8,9,10,12,13,14,15,16,17,18,19,20,21,22,12,13,14,15,16,17,
23,24,25,26,27,28,29,30,31,32,33,23,24,25,26,27,28,29,30,31,32,33,1,2,3,4,5,6,7,8,9,10,11,23,24,25,26,27,28,29,30,31,32,33,23,24,25,26,27,28,
34,35,36,37,38,39,40,41,42,43,44,34,35,36,37,38,39,40,41,42,43,44,12,13,14,15,16,17,18,19,20,21,22,34,35,36,37,38,39,40,41,42,43,44,34,35,36,37,38,39,
45,46,47,48,49,50,51,52,53,54,55,45,46,47,48,49,50,51,52,53,54,55,23,24,25,26,27,28,29,30,31,32,33,45,46,47,48,49,50,51,52,53,54,55,45,46,47,48,49,50,
56,57,58,59,60,61,62,63,64,65,66,56,57,58,59,60,61,62,63,64,65,66,34,35,36,37,38,39,40,41,42,43,44,56,57,58,59,60,61,62,63,64,65,66,56,57,58,59,60,61,
67,68,69,70,71,72,73,74,75,76,77,67,68,69,70,71,72,73,74,75,76,77,45,46,47,48,49,50,51,52,53,54,55,67,68,69,70,71,72,73,74,75,76,77,67,68,69,70,71,72,
78,79,80,81,82,83,84,85,86,87,88,78,79,80,81,82,83,84,85,86,87,88,56,57,58,59,60,61,62,63,64,65,66,78,79,80,81,82,83,84,85,86,87,88,78,79,80,81,82,83,
89,90,91,92,93,94,95,96,97,98,99,89,90,91,92,93,94,95,96,97,98,99,67,68,69,70,71,72,73,74,75,76,77,89,90,91,92,93,94,95,96,97,98,99,89,90,91,92,93,94,
100,101,102,103,104,105,106,107,108,109,110,100,101,102,103,104,105,106,107,108,109,110,78,79,80,81,82,83,84,85,86,87,88,100,101,102,103,104,105,106,107,108,109,110,100,101,102,103,104,105,
1,2,3,4,5,6,7,8,9,10,11,1,2,3,4,5,6,7,8,9,10,11,89,90,91,92,93,94,95,96,97,98,99,1,2,3,4,5,6,7,8,9,10,11,1,2,3,4,5,6,
12,13,14,15,16,17,18,19,20,21,22,12,13,14,15,16,17,18,19,20,21,22,100,101,102,103,104,105,106,107,108,109,110,12,13,14,15,16,17,18,19,20,21,22,12,13,14,15,16,17,
23,24,25,26,27,28,29,30,31,32,33,23,24,25,26,27,28,29,30,31,32,33,1,2,3,4,5,6,7,8,9,10,11,23,24,25,26,27,28,29,30,31,32,33,23,24,25,26,27,28,
34,35,36,37,38,39,40,41,42,43,44,34,35,36,37,38,39,40,41,42,43,44,12,13,14,15,16,17,18,19,20,21,22,34,35,36,37,38,39,40,41,42,43,44,34,35,36,37,38,39,
45,46,47,48,49,50,51,52,53,54,55,45,46,47,48,49,50,51,52,53,54,55,23,24,25,26,27,28,29,30,31,32,33,45,46,47,48,49,50,51,52,53,54,55,45,46,47,48,49,50,
56,57,58,59,60,61,62,63,64,65,66,56,57,58,59,60,61,62,63,64,65,66,34,35,36,37,38,39,40,41,42,43,44,56,57,58,59,60,61,62,63,64,65,66,56,57,58,59,60,61,
67,68,69,70,71,72,73,74,75,76,77,67,68,69,70,71,72,73,74,75,76,77,45,46,47,48,49,50,51,52,53,54,55,67,68,69,70,71,72,73,74,75,76,77,67,68,69,70,71,72,
78,79,80,81,82,83,84,85,86,87,88,78,79,80,81,82,83,84,85,86,87,88,56,57,58,59,60,61,62,63,64,65,66,78,79,80,81,82,83,84,85,86,87,88,78,79,80,81,82,83,
89,90,91,92,93,94,95,96,97,98,99,89,90,91,92,93,94,95,96,97,98,99,67,68,69,70,71,72,73,74,75,76,77,89,90,91,92,93,94,95,96,97,98,99,89,90,91,92,93,94,
100,101,102,103,104,105,106,107,108,109,110,100,101,102,103,104,105,106,107,108,109,110,78,79,80,81,82,83,84,85,86,87,88,100,101,102,103,104,105,106,107,108,109,110,100,101,102,103,104,105,
1,2,3,4,5,6,7,8,9,10,1,2,3,4,5,6,7,8,9,10,11,1,2,3,4,5,6,7,8,9,10,11,99,100,101,102,103,104,105,106,107,108,109,110,1,2,3,4,5,6,
12,13,14,15,16,17,18,19,20,21,12,13,14,15,16,17,18,19,20,21,22,12,13,14,15,16,17,18,19,20,21,22,1,2,3,4,5,6,7,8,9,10,11,1,12,13,14,15,16,17,
23,24,25,26,27,28,29,30,31,32,23,24,25,26,27,28,29,30,31,32,33,23,24,25,26,27,28,29,30,31,32,33,12,13,14,15,16,17,18,19,20,21,22,12,23,24,25,26,27,28,
34,35,36,37,38,39,40,41,42,43,34,35,36,37,38,39,40,41,42,43,44,34,35,36,37,38,39,40,41,42,43,44,23,24,25,26,27,28,29,30,31,32,33,23,34,35,36,37,38,39,
45,46,47,48,49,50,51,52,53,54,45,46,47,48,49,50,51,52,53,54,55,45,46,47,48,49,50,51,52,53,54,55,34,35,36,37,38,39,40,41,42,43,44,34,45,46,47,48,49,50,
56,57,58,59,60,61,62,63,64,65,56,57,58,59,60,61,62,63,64,65,66,56,57,58,59,60,61,62,63,64,65,66,45,46,47,48,49,50,51,52,53,54,55,45,56,57,58,59,60,61,
67,68,69,70,71,72,73,74,75,76,67,68,69,70,71,72,73,74,75,76,77,67,68,69,70,71,72,73,74,75,76,77,56,57,58,59,60,61,62,63,64,65,66,56,67,68,69,70,71,72,
78,79,80,81,82,83,84,85,86,87,78,79,80,81,82,83,84,85,86,87,88,78,79,80,81,82,83,84,85,86,87,88,67,68,69,70,71,72,73,74,75,76,77,67,78,79,80,81,82,83,
89,90,91,92,93,94,95,96,97,98,89,90,91,92,93,94,95,96,97,98,99,89,90,91,92,93,94,95,96,97,98,99,78,79,80,81,82,83,84,85,86,87,88,78,89,90,91,92,93,94,
100,101,102,103,104,105,106,107,108,109,100,101,102,103,104,105,106,107,108,109,110,100,101,102,103,104,105,106,107,108,109,110,89,90,91,92,93,94,95,96,97,98,99,89,100,101,102,103,104,105,
1,2,3,4,5,6,7,8,9,10,11,1,2,3,4,5,6,7,8,9,10,1,2,3,4,5,6,7,8,9,10,11,1,2,3,4,5,6,7,8,9,10,11,1,2,3,4,5,6,7,
12,13,14,15,16,17,18,19,20,21,22,12,13,14,15,16,17,18,19,20,21,12,13,14,15,16,17,18,19,20,21,22,12,13,14,15,16,17,18,19,20,21,22,12,13,14,15,16,17,18,
23,24,25,26,27,28,29,30,31,32,33,23,24,25,26,27,28,29,30,31,32,23,24,25,26,27,28,29,30,31,32,33,23,24,25,26,27,28,29,30,31,32,33,23,24,25,26,27,28,29,
34,35,36,37,38,39,40,41,42,43,44,34,35,36,37,38,39,40,41,42,43,34,35,36,37,38,39,40,41,42,43,44,34,35,36,37,38,39,40,41,42,43,44,34,35,36,37,38,39,40,
45,46,47,48,49,50,51,52,53,54,55,45,46,47,48,49,50,51,52,53,54,45,46,47,48,49,50,51,52,53,54,55,45,46,47,48,49,50,51,52,53,54,55,45,46,47,48,49,50,51,
56,57,58,59,60,61,62,63,64,65,66,56,57,58,59,60,61,62,63,64,65,56,57,58,59,60,61,62,63,64,65,66,56,57,58,59,60,61,62,63,64,65,66,56,57,58,59,60,61,62,
67,68,69,70,71,72,73,74,75,76,77,67,68,69,70,71,72,73,74,75,76,67,68,69,70,71,72,73,74,75,76,77,67,68,69,70,71,72,73,74,75,76,77,67,68,69,70,71,72,73,
78,79,80,81,82,83,84,85,86,87,88,78,79,80,81,82,83,84,85,86,87,78,79,80,81,82,83,84,85,86,87,88,78,79,80,81,82,83,84,85,86,87,88,78,79,80,81,82,83,84,
89,90,91,92,93,94,95,96,97,98,99,89,90,91,92,93,94,95,96,97,98,89,90,91,92,93,94,95,96,97,98,99,89,90,91,92,93,94,95,96,97,98,99,89,90,91,92,93,94,95,
100,101,102,103,104,105,106,107,108,109,110,100,101,102,103,104,105,106,107,108,109,100,101,102,103,104,105,106,107,108,109,110,100,101,102,103,104,105,106,107,108,109,110,100,101,102,103,104,105,106
</data>
 </layer>
</map>
